src/assets/filled/StarSlash.svg

<svg width="24" height="24" viewBox="0 0 24 24"  xmlns="http://www.w3.org/2000/svg">
<path d="M18.7 14.4595C18.35 14.8095 18.15 15.5095 18.26 15.9895L18.95 19.0095C19.24 20.2595 19.06 21.1995 18.44 21.6495C18.19 21.8295 17.89 21.9195 17.54 21.9195C17.03 21.9195 16.43 21.7295 15.77 21.3395L12.84 19.5995C12.38 19.3295 11.62 19.3295 11.16 19.5995L8.22995 21.3395C7.11995 21.9895 6.16995 22.0995 5.55995 21.6495C5.51995 21.6195 5.47995 21.5895 5.44995 21.5495L18.07 8.92955C18.53 8.46955 19.18 8.25955 19.82 8.36955L19.97 8.39955C21.03 8.57955 21.74 9.05955 21.97 9.75955C22.19 10.4595 21.8899 11.2695 21.13 12.0295L18.7 14.4595Z" />
<path d="M5.7401 16C5.8501 15.52 5.6501 14.81 5.3001 14.46L2.8701 12.03C2.1101 11.27 1.8101 10.46 2.0301 9.76C2.2601 9.06 2.9701 8.58 4.0301 8.4L7.1501 7.88C7.6001 7.8 8.1501 7.4 8.3601 6.99L10.0801 3.54C10.5801 2.55 11.2601 2 12.0001 2C12.7401 2 13.4201 2.55 13.9201 3.54L15.6401 6.99C15.7701 7.25 16.0401 7.5 16.3301 7.67L5.0701 18.93L5.7401 16Z" />
<path d="M21.7699 2.22988C21.4699 1.92988 20.9799 1.92988 20.6799 2.22988L2.22988 20.6899C1.92988 20.9899 1.92988 21.4799 2.22988 21.7799C2.37988 21.9199 2.56988 21.9999 2.76988 21.9999C2.96988 21.9999 3.15988 21.9199 3.30988 21.7699L21.7699 3.30988C22.0799 3.00988 22.0799 2.52988 21.7699 2.22988Z" />
</svg>

<?xml version="1.0" encoding="UTF-8"?>
<svg width="24" height="24" viewBox="0 0 24 24" xmlns="http://www.w3.org/2000/svg">
 <path d="m18.7 14.46c-0.35 0.35-0.55 1.05-0.44 1.53l0.69 3.02c0.29 1.25 0.11 2.19-0.51 2.64-0.25 0.18-0.55 0.27-0.9 0.27-0.51 0-1.11-0.19-1.77-0.58l-2.93-1.74c-0.46-0.27-1.22-0.27-1.68 0l-2.93 1.74c-1.11 0.65-2.06 0.76-2.67 0.31-0.04-0.03-0.08-0.06-0.11-0.1l12.62-12.62c0.46-0.46 1.11-0.67 1.75-0.56l0.15 0.03c1.06 0.18 1.77 0.66 2 1.36 0.22 0.69995-0.0801 1.51-0.84 2.27l-2.43 2.43z"/>
 <path d="m5.7401 16c0.11-0.48-0.09-1.19-0.44-1.54l-2.43-2.43c-0.76-0.76-1.06-1.57-0.84-2.27 0.23-0.7 0.94-1.18 2-1.36l3.12-0.52c0.45-0.08 1-0.48 1.21-0.89l1.72-3.45c0.5-0.99 1.18-1.54 1.92-1.54s1.42 0.55 1.92 1.54l1.72 3.45c0.13 0.26 0.4 0.51 0.69 0.68l-11.26 11.26 0.67-2.93z"/>
 <path d="m21.77 2.2299c-0.3-0.3-0.79-0.3-1.09 0l-18.45 18.46c-0.3 0.3-0.3 0.79 0 1.09 0.15 0.14 0.34 0.22 0.54 0.22s0.39-0.08 0.54-0.23l18.46-18.46c0.31-0.3 0.31-0.78 0-1.08z"/>
</svg>
